X:15
T:Trip to Belmarsh
T:Turas go Belmarsh
S:ATB
N:This was a Scots Measure from Vol III of James Aird
N:called 'Niven's', reworked into a spooky hornpipe.
Z:ATB
R:hornpipe
M:4/4
L:1/8
K:Gmix
dc|B2G2 G2Bc|dcde f2dc|B2G2 G2Bc|dcBG F2dc|
BdG2 G2FG|BABc d2cB|cdfg dgcd|B2G2 G2:|]
df|g2fe d2cB|c2d2 g2ga|bgfd fdcB|cBcd F2BA|
GFGA BABG|cBcd edcA|cdfg dgcd|B2G2 G2:|]
